symbols/web/contacts/materialsymbolsrounded/contacts_grad200fill1_48px.svg

<svg xmlns="http://www.w3.org/2000/svg" height="48" width="48"><path d="M8.6 47.7q-.8 0-1.325-.525-.525-.525-.525-1.275 0-.75.525-1.3t1.325-.55h30.85q.75 0 1.275.55.525.55.525 1.3t-.525 1.275q-.525.525-1.275.525Zm0-43.8q-.8 0-1.325-.525Q6.75 2.85 6.75 2.1q0-.75.525-1.3T8.6.25h30.85q.75 0 1.275.55.525.55.525 1.3t-.525 1.275Q40.2 3.9 39.45 3.9ZM24 26.3q2.65 0 4.475-1.8 1.825-1.8 1.825-4.45 0-2.65-1.825-4.475Q26.65 13.75 24 13.75q-2.65 0-4.45 1.825-1.8 1.825-1.8 4.475 0 2.65 1.8 4.45 1.8 1.8 4.45 1.8ZM6.45 40.75q-1.45 0-2.55-1.1-1.1-1.1-1.1-2.55V10.9q0-1.6 1.1-2.625T6.45 7.25h35.1q1.45 0 2.55 1.1 1.1 1.1 1.1 2.55v26.2q0 1.45-1.1 2.55-1.1 1.1-2.55 1.1Zm3.65-3.65h27.8q-2.45-3.4-6.3-5.2-3.85-1.8-7.6-1.8-3.8 0-7.575 1.8-3.775 1.8-6.325 5.2Z"/></svg>

<svg xmlns="http://www.w3.org/2000/svg" height="48" width="48"><path d="M8.6 47.7Q7.8 47.7 7.275 47.175Q6.75 46.65 6.75 45.9Q6.75 45.15 7.275 44.6Q7.8 44.05 8.6 44.05H39.45Q40.2 44.05 40.725 44.6Q41.25 45.15 41.25 45.9Q41.25 46.65 40.725 47.175Q40.2 47.7 39.45 47.7ZM8.6 3.9Q7.8 3.9 7.275 3.375Q6.75 2.85 6.75 2.1Q6.75 1.35 7.275 0.8Q7.8 0.25 8.6 0.25H39.45Q40.2 0.25 40.725 0.8Q41.25 1.35 41.25 2.1Q41.25 2.85 40.725 3.375Q40.2 3.9 39.45 3.9ZM24 26.3Q26.65 26.3 28.475 24.5Q30.3 22.7 30.3 20.05Q30.3 17.4 28.475 15.575Q26.65 13.75 24 13.75Q21.35 13.75 19.55 15.575Q17.75 17.4 17.75 20.05Q17.75 22.7 19.55 24.5Q21.35 26.3 24 26.3ZM6.45 40.75Q5 40.75 3.9 39.65Q2.8 38.55 2.8 37.1V10.9Q2.8 9.3 3.9 8.275Q5 7.25 6.45 7.25H41.55Q43 7.25 44.1 8.35Q45.2 9.45 45.2 10.9V37.1Q45.2 38.55 44.1 39.65Q43 40.75 41.55 40.75ZM10.1 37.1H37.9Q35.45 33.7 31.6 31.9Q27.75 30.1 24 30.1Q20.2 30.1 16.425 31.9Q12.65 33.7 10.1 37.1Z"/></svg>
